assets/icons/home.svg

<svg width="24" height="24" viewBox="0 0 24 24" fill="none" xmlns="http://www.w3.org/2000/svg">
<path d="M2.45307 11.751L11.9773 2.02175L21.5015 11.751C21.7906 12.0463 21.9545 12.4468 21.9545 12.8711V20.4556C21.9545 20.7747 21.7037 21 21.4427 21H15.964C15.713 21 15.4721 20.7849 15.4721 20.476V15.8886C15.4721 13.9497 13.9267 12.34 11.9773 12.34C10.0279 12.34 8.48244 13.9497 8.48244 15.8886V20.476C8.48244 20.7849 8.24157 21 7.99053 21H2.51187C2.25085 21 2 20.7747 2 20.4556V12.8711C2 12.4468 2.16397 12.0463 2.45307 11.751Z" stroke="black" stroke-width="2"/>
</svg>

<svg xmlns="http://www.w3.org/2000/svg" width="24" height="24" fill="none"><path stroke="#000" stroke-width="2" d="m2.453 11.751 9.524-9.73 9.524 9.73c.29.295.453.696.453 1.12v7.585c0 .319-.25.544-.511.544h-5.479a.51.51 0 0 1-.492-.524v-4.587c0-1.94-1.545-3.549-3.495-3.549-1.95 0-3.495 1.61-3.495 3.549v4.587a.51.51 0 0 1-.491.524H2.51A.531.531 0 0 1 2 20.456V12.87c0-.424.164-.825.453-1.12Z"/></svg>
